!!!id: BC043
!!!page: 55
!!!COM: (Folklore française)
!!!PTL@@FR: Les 100 plus belles chansons
!!!OTL@@FR: C'etait Anne de Bretagne
!!!PUB: La Bonne Chanson, inc.
!!!YEM: On ne peut reproduire, enregistrer ou diffuser en tout ou en partie le présent ouvrage, sous quelque procédé que ce soit, électronique, mécanique, photographique, sonore, magnétique ou autre, sans avoir obtenu au préalable l'autorisation écrite de l'éditrice.
!!!PDT: 2011
!!!SMA: 2012 Bibliothèque nationale du Québec; Biblothèque nationale du Canada
!!!AGN-Laforte: chanson strophique (avec refrain): 6:2(8), R(8+10)
!!!AGN-type: Vieux Monde?
!!!AGN-rime: monorime [ɛn,ə]
**kern	**dynam	**text	**text	**text	**text	**text	**text
*clefG2	*	*	*	*	*	*	*
*k[b-e-]	*	*	*	*	*	*	*
*D:	*	*	*	*	*	*	*
!!!OMD:Allegro
*M6/8	*	*	*	*	*	*	*
*	*	*vv:1	*vv:2	*vv:3	*vv:4	*vv:5	*vv:6
*	*	*pline:1	*pline:3	*pline:5	*pline:7	*pline:9	*pline:10r
!!LO:TX:a:B:i:t=p
{{4g	^pyy	C'é-	Voi-	Ils	"S'il	La	Les
8g	.	-tait	-là	sa-	fleu-	du-	Bre-
=1	=1	=1	=1	=1	=1	=1	=1
4b-	.	An-	qu'aux	-luent	-rit,	-chess[e]	-tons
8b-	.	-ne	por-	leur	vous	An-	sont
4a	.	de	-tes	sou-	se-	-ne	dans
8a	.	Bre-	de	-ve-	-rez	fut	la
=2||	=2||	=2||	=2||	=2||	=2||	=2||	=2||
*M9/8	*	*	*	*	*	*	*
4g	.	-ta-	Ren-	-rai-	rei-	rei-	pei-
8g}	.	-gne,	-nes,	-ne,	-ne,	-ne,	-ne,
*	*	*rp:aɲ,ə	*rp:ɛn,ə	*rp:ɛn,ə	*rp:ɛn,ə	*rp:ɛn,ə	*rp:ɛn,ə
*	*	*rf:a	*rf:ɛ	*rf:ɛ	*rf:ɛ	*rf:ɛ	*rf:ɛ
*	*	*rs:x	*rs:a	*rs:a	*rs:a	*rs:a	*rs:a
{4b-	.	Du-	A-	A-	A-	A-	A-
8b-	.	-chess[e]	-vec	-vec	-vec	-vec	-vec
4cc	.	en	ses	des	des	des	des
8cc	.	sa-	sa-	sa-	sa-	sa-	sa-
!!LO:PB:g=original
=3||	=3||	=3||	=3||	=3||	=3||	=3||	=3||
*M6/8	*	*	*	*	*	*	*
4.dd;}	.	-bots,	-bots,	-bots,	-bots!	-bots!	-bots!
!!is the line numbering correct?
*	*	*pline:1r	*pline:3r	*pline:5r	*pline:7r	*pline:9r	*pline:10r
{4g	.	C'é-	Voi-	Ils	S'il	La	Les
8g	.	-tait	-là	sa-	fleu-	du-	Bre-
=4	=4	=4	=4	=4	=4	=4	=4
4b-	.	An-	qu'aux	-luent	-rit,	-chess[e]	-tons
8b-	.	ne	por-	leur	vous	An-	sont
4a	.	de	-tes	sou-	se-	-ne	dans
8a	.	Bre-	de	-ve-	-rez	fut	la
=5||	=5||	=5||	=5||	=5||	=5||	=5||	=5||
*M9/8	*	*	*	*	*	*	*
4g	.	-ta-	Ren-	-rai-	rei-	rei-	pei-
8g}	.	-gne,	-nes,	-ne,	-ne,	-ne.	-ne,
{4b-	.	Du-	A-	A-	A-	A-	A-
8b-	.	-chess[e]	-vec	-vec	-vec	-vec	-vec
4cc	.	en	ses	des	des	des	des
8cc	.	sa-	sa-	sa-	sa-	sa-	sa-
!!LO:PB:g=original
=6||	=6||	=6||	=6||	=6||	=6||	=6||	=6||
*M2/4	*	*	*	*	*	*	*
4dd;}}	.	-bots,	-bots,	-bots,	-bots!"	-bots!	-bots!
*	*	*pline:2	*pline:4	*pline:6	*pline:8	*pline:10	*pline:11
{{8dd	.	Re-	Trou-	Lui	Elle	Les	Il
8ee-	.	-ve-	-va	donn'nt	a	Bre-	n'ont
=7	=7	=7	=7	=7	=7	=7	=7
8dd	.	-nant	trois	un	fleu-	-tons	plus
8cc	.	de	beaux	pied	-ri,	sont	de
8cc	.	ses	ca-	de	la	dans	sou-
8dd	.	do-	-pi-	ver-	ver-	la	-ve-
=8	=8	=8	=8	=8	=8	=8	=8
8cc	.	-mai-	-tai-	-vei-	-vei-	pei-	-rai-
8b-}	.	-nes,	-nes,	-ne...	-ne...	-ne,	-ne,
*	*	*rp:ɛn,ə	*rp:tɛn,ə	*rp:ɛn,ə	*rp:ɛn,ə	*rp:ɛn,ə	*rp:ɛn,ə
*	*	*rf:ɛ	*rf:ɛ	*rf:ɛ	*rf:ɛ	*rf:ɛ	*rf:ɛ
*	*	*rs:a	*rs:a	*rs:a	*rs:a	*rs:a	*rs:a
*	*	*refrain	*refrain	*refrain	*refrain	*refrain	*refrain
{8b-	.	En	En	En	En	En	En
8cc	.	sa-	sa-	sa-	sa-	sa-	sa-
=9	=9	=9	=9	=9	=9	=9	=9
8b-	.	-bots	-bots	-bots,	-bots,	-bots,	-bots,
8a	.	mir-	mir-	mir-	mir-	mir-	mir-
8a	.	-li-	-li-	-li-	-li-	-li-	-li-
8b-	.	-ton-	-ton-	-ton-	-ton-	-ton-	-ton-
!!LO:PB:g=original
=10||	=10||	=10||	=10||	=10||	=10||	=10||	=10||
*M3/4	*	*	*	*	*	*	*
8a	.	-tai-	-tai-	-tai-	-tai-	-tai-	-tai-
!!pline10: "...." in original
8g}	.	-ne,	-ne,	-ne...	-ne...	-ne....	-ne,
*	*	*rp:ɛn,ə	*rp:tɛn,ə	*rp:ɛn,ə	*rp:ɛn,ə	*rp:ɛn,ə	*rp:ɛn,ə
*	*	*rf:ɛ	*rf:ɛ	*rf:ɛ	*rf:ɛ	*rf:ɛ	*rf:ɛ
*	*	*rs:a	*rs:a	*rs:a	*rs:a	*rs:a	*rs:a
{4g^	.	Ah!	Ah!	Ah!	Ah!	Ah!	Ah!
*	*	*bis	*bis	*bis	*bis	*bis	*bis
4b-^	.	Ah!	Ah!	Ah!	Ah!	Ah!	Ah!
=11	=11	=11	=11	=11	=11	=11	=11
4dd(^	.	Ah!	Ah!	Ah!	Ah!	Ah!	Ah!
*	*	*Xbis	*Xbis	*Xbis	*Xbis	*Xbis	*Xbis
8dd)	.	.	.	.	.	.	.
8r	.	.	.	.	.	.	.
8.cc	.	Vi-	Vi-	Vi-	Vi-	Vi-	Vi-
16ee-	.	-vent	-vent	-vent	-vent	-vent	-vent
=12||	=12||	=12||	=12||	=12||	=12||	=12||	=12||
*M2/4	*	*	*	*	*	*	*
!!LO:TX:a:i:t=rit.
8dd	.	les	les	les	les	les	les
8cc	.	sa-	sa-	sa-	sa-	sa-	sa-
8b-	.	-bots	-bots	-bots	-bots	-bots	-bots
8a	.	de	de	de	de	de	de
=13||	=13||	=13||	=13||	=13||	=13||	=13||	=13||
*M6/8	*	*	*	*	*	*	*
4.g}}	.	bois!	bois!	bois!	bois!	bois!	bois!
*	*	*Xrefrain	*Xrefrain	*Xrefrain	*Xrefrain	*Xrefrain	*Xrefrain
==	==	==	==	==	==	==	==
*-	*-	*-	*-	*-	*-	*-	*-
!!!EED: Isaac Howie
!!!EEV: 2025/June/10
